src/assets/outline/Smileys.svg

<?xml version="1.0" encoding="UTF-8"?>
<svg width="24" height="24" viewBox="0 0 24 24" xmlns="http://www.w3.org/2000/svg">
 <path d="m10 14.75h-3.8c-3.42 0-4.95-1.53-4.95-4.95v-3.6001c0-3.42 1.53-4.95 4.95-4.95h3.6c3.42 0 4.95 1.53 4.95 4.95v3.8c0 0.41-0.33 0.74-0.74 0.75-2.4 0.04-3.22 0.87-3.26 3.26-0.01 0.41-0.34 0.74-0.75 0.74zm-3.8-12c-2.58 0-3.45 0.86995-3.45 3.45v3.6001c0 2.58 0.87 3.45 3.45 3.45h3.09c0.24-2.44 1.52-3.71 3.96-3.96v-3.0901c0-2.58-0.87-3.45-3.45-3.45h-3.6z"/>
 <path d="m5.2 6.6296c-0.23 0-0.47-0.10994-0.61-0.31994-0.24-0.34-0.16-0.81005 0.18-1.05 0.78-0.55 1.83-0.56002 2.62-0.02002 0.34 0.23 0.43 0.70004 0.2 1.04s-0.7 0.42995-1.04 0.19995c-0.27-0.18-0.62999-0.17999-0.89999 0.01001-0.15 0.1-0.30001 0.14001-0.45001 0.14001z"/>
 <path d="m9.2 6.6296c-0.23 0-0.47-0.10994-0.61-0.31994-0.24-0.34-0.16-0.81005 0.18-1.05 0.78-0.55 1.83-0.56002 2.62-0.02002 0.34 0.23 0.43 0.70004 0.2 1.04s-0.7 0.42995-1.04 0.19995c-0.27-0.18-0.62999-0.17999-0.89999 0.01001-0.15 0.1-0.30001 0.14001-0.45001 0.14001z"/>
 <path d="m8.1598 12.17h-2.32c-0.71 0-1.29-0.5801-1.29-1.2901 0-1.9 1.55-3.4499 3.45-3.4499 0.78 0 1.55 0.26989 2.16 0.75989 0.32 0.26 0.38 0.73004 0.12 1.05s-0.72999 0.37-1.05 0.12c-0.34999-0.28-0.77-0.42993-1.22-0.42993-1 0-1.83 0.75999-1.94 1.74h2.1c0.41 0 0.75 0.34 0.75 0.75s-0.34999 0.75-0.75999 0.75z"/>
 <path d="m17.8 22.75h-3.6c-3.42 0-4.95-1.53-4.95-4.95v-3.8c0.06-3.19 1.56-4.69 4.74-4.75h3.81c3.42 0 4.95 1.53 4.95 4.95v3.6c0 3.42-1.53 4.95-4.95 4.95zm-3.8-12c-2.38 0.04-3.21 0.87-3.25 3.26v3.79c0 2.58 0.87 3.45 3.45 3.45h3.6c2.58 0 3.45-0.87 3.45-3.45v-3.6c0-2.58-0.87-3.45-3.45-3.45h-3.8z"/>
 <path d="m14.09 14.63c-0.47 0-0.93-0.14-1.32-0.42-0.34-0.24-0.42-0.7099-0.18-1.0499s0.71-0.4201 1.05-0.1801c0.27 0.19 0.63 0.19 0.9 0.01 0.34-0.23 0.81-0.15 1.04 0.2 0.23 0.34 0.15 0.81-0.2 1.04-0.39 0.27-0.84 0.4-1.29 0.4z"/>
 <path d="m18.09 14.63c-0.47 0-0.93-0.14-1.32-0.42-0.34-0.24-0.42-0.7099-0.18-1.0499s0.71-0.4201 1.05-0.1801c0.27 0.19 0.63 0.19 0.9 0.01 0.34-0.23 0.81-0.15 1.04 0.2 0.23 0.34 0.15 0.81-0.2 1.04-0.39 0.27-0.84 0.4-1.29 0.4z"/>
 <path d="m16 20.17c-1.9 0-3.45-1.5501-3.45-3.4501 0-0.71 0.58-1.2899 1.29-1.2899h4.32c0.71 0 1.29 0.5799 1.29 1.2899 0 1.9-1.55 3.4501-3.45 3.4501zm-1.94-3.24c0.1 0.98 0.93 1.74 1.94 1.74s1.83-0.76 1.94-1.74h-3.88z"/>
</svg>

<svg width="24" height="24" viewBox="0 0 24 24"  xmlns="http://www.w3.org/2000/svg">
<path d="M10 14.75H6.2C2.78 14.75 1.25 13.22 1.25 9.80005V6.19995C1.25 2.77995 2.78 1.25 6.2 1.25H9.8C13.22 1.25 14.75 2.77995 14.75 6.19995V10C14.75 10.41 14.42 10.74 14.01 10.75C11.61 10.79 10.79 11.62 10.75 14.01C10.74 14.42 10.41 14.75 10 14.75ZM6.2 2.75C3.62 2.75 2.75 3.61995 2.75 6.19995V9.80005C2.75 12.38 3.62 13.25 6.2 13.25H9.29C9.53 10.81 10.81 9.54004 13.25 9.29004V6.19995C13.25 3.61995 12.38 2.75 9.8 2.75H6.2Z" />
<path d="M5.2 6.62965C4.97 6.62965 4.73 6.51971 4.59 6.30971C4.35 5.96971 4.43 5.49966 4.77 5.25966C5.55 4.70966 6.6 4.69964 7.39 5.23964C7.73 5.46964 7.82 5.93968 7.59 6.27968C7.36 6.61968 6.89 6.70963 6.55 6.47963C6.28 6.29963 5.92001 6.29964 5.65001 6.48964C5.50001 6.58964 5.35 6.62965 5.2 6.62965Z" />
<path d="M9.2 6.62965C8.97 6.62965 8.73 6.51971 8.59 6.30971C8.35 5.96971 8.43 5.49966 8.77 5.25966C9.55 4.70966 10.6 4.69964 11.39 5.23964C11.73 5.46964 11.82 5.93968 11.59 6.27968C11.36 6.61968 10.89 6.70963 10.55 6.47963C10.28 6.29963 9.92001 6.29964 9.65001 6.48964C9.50001 6.58964 9.35 6.62965 9.2 6.62965Z" />
<path d="M8.15981 12.1697H5.83981C5.12981 12.1697 4.5498 11.5896 4.5498 10.8796C4.5498 8.97964 6.09981 7.42969 7.99981 7.42969C8.77981 7.42969 9.54981 7.69958 10.1598 8.18958C10.4798 8.44958 10.5398 8.91962 10.2798 9.23962C10.0198 9.55962 9.54981 9.60962 9.2298 9.35962C8.87981 9.07962 8.4598 8.92969 8.0098 8.92969C7.0098 8.92969 6.17981 9.68968 6.06981 10.6697H8.1698C8.5798 10.6697 8.9198 11.0097 8.9198 11.4197C8.9198 11.8297 8.56981 12.1697 8.15981 12.1697Z" />
<path d="M17.8 22.75H14.2C10.78 22.75 9.25 21.22 9.25 17.8V14C9.31 10.81 10.81 9.31 13.99 9.25H17.8C21.22 9.25 22.75 10.78 22.75 14.2V17.8C22.75 21.22 21.22 22.75 17.8 22.75ZM14 10.75C11.62 10.79 10.79 11.62 10.75 14.01V17.8C10.75 20.38 11.62 21.25 14.2 21.25H17.8C20.38 21.25 21.25 20.38 21.25 17.8V14.2C21.25 11.62 20.38 10.75 17.8 10.75H14Z" />
<path d="M14.09 14.6301C13.62 14.6301 13.16 14.4901 12.77 14.2101C12.43 13.9701 12.35 13.5002 12.59 13.1602C12.83 12.8202 13.3 12.7401 13.64 12.9801C13.91 13.1701 14.27 13.1701 14.54 12.9901C14.88 12.7601 15.35 12.8401 15.58 13.1901C15.81 13.5301 15.73 14.0001 15.38 14.2301C14.99 14.5001 14.54 14.6301 14.09 14.6301Z" />
<path d="M18.09 14.6301C17.62 14.6301 17.16 14.4901 16.77 14.2101C16.43 13.9701 16.35 13.5002 16.59 13.1602C16.83 12.8202 17.3 12.7401 17.64 12.9801C17.91 13.1701 18.27 13.1701 18.54 12.9901C18.88 12.7601 19.35 12.8401 19.58 13.1901C19.81 13.5301 19.73 14.0001 19.38 14.2301C18.99 14.5001 18.54 14.6301 18.09 14.6301Z" />
<path d="M15.9998 20.1697C14.0998 20.1697 12.5498 18.6196 12.5498 16.7196C12.5498 16.0096 13.1298 15.4297 13.8398 15.4297H18.1598C18.8698 15.4297 19.4498 16.0096 19.4498 16.7196C19.4498 18.6196 17.8998 20.1697 15.9998 20.1697ZM14.0598 16.9297C14.1598 17.9097 14.9898 18.6697 15.9998 18.6697C17.0098 18.6697 17.8298 17.9097 17.9398 16.9297H14.0598Z" />
</svg>
